; HEADER_BLOCK_START
; generated by OrcaSlicer 2.0.0 on 2024-04-17 at 12:35:23
; total layer number: 576
; filament_density: 1.24
; filament_diameter: 1.75
; max_z_height: 115.00
; HEADER_BLOCK_END

; THUMBNAIL_BLOCK_START

;
; THUMBNAIL_BLOCK_END

; THUMBNAIL_BLOCK_START

;
; THUMBNAIL_BLOCK_END

; external perimeters extrusion width = 0.40mm
; perimeters extrusion width = 0.42mm
; infill extrusion width = 0.45mm
; solid infill extrusion width = 0.42mm
; top infill extrusion width = 0.40mm
; first layer extrusion width = 0.50mm

; EXECUTABLE_BLOCK_START
EXCLUDE_OBJECT_DEFINE NAME=TopV2.stl_id_0_copy_0 CENTER=99.3571,90.6363 POLYGON=[[46.8571,90.6363],[46.872,90.1389],[46.8792,89.9001],[46.883,89.7725],[46.8969,89.6182],[46.944,89.0953],[46.9602,88.9148],[46.9607,88.9096],[46.9732,88.8267],[46.9898,88.7157],[47.0901,88.0483],[47.2711,87.1897],[47.5035,86.3344],[47.787,85.4833],[48.1215,84.6374],[48.5065,83.7973],[48.9417,82.9641],[49.4267,82.1384],[49.9609,81.321],[50.5439,80.5129],[51.175,79.7148],[51.8537,78.9274],[52.5793,78.1516],[53.351,77.3881],[54.1682,76.6377],[55.0299,75.9011],[55.9354,75.179],[56.8837,74.4722],[57.874,73.7814],[58.9052,73.1072],[59.9763,72.4502],[61.0863,71.8113],[62.234,71.1909],[63.4184,70.5897],[64.6383,70.0083],[65.8924,69.4472],[67.1795,68.9071],[68.4984,68.3884],[69.8477,67.8916],[71.2262,67.4173],[72.6324,66.9659],[74.0651,66.5379],[75.5226,66.1336],[77.0037,65.7536],[78.5069,65.3981],[80.0306,65.0675],[81.5734,64.7621],[83.1337,64.4823],[84.7101,64.2282],[86.3009,64.0003],[87.9046,63.7986],[89.5196,63.6234],[91.1443,63.4749],[92.7771,63.3532],[94.4164,63.2584],[96.0606,63.1906],[97.7081,63.1499],[99.3571,63.1363],[101.006,63.1499],[102.654,63.1906],[104.298,63.2584],[105.937,63.3532],[107.57,63.4749],[109.195,63.6234],[110.81,63.7986],[112.413,64.0003],[114.004,64.2282],[115.581,64.4823],[117.141,64.7621],[118.684,65.0675],[120.207,65.3981],[121.711,65.7536],[123.192,66.1336],[124.649,66.5379],[126.082,66.9659],[127.488,67.4173],[128.866,67.8916],[130.216,68.3884],[131.535,68.9071],[132.822,69.4472],[134.076,70.0083],[135.296,70.5897],[136.48,71.1909],[137.628,71.8113],[138.738,72.4502],[139.809,73.1072],[140.84,73.7814],[141.831,74.4722],[142.779,75.179],[143.684,75.9011],[144.546,76.6377],[145.363,77.3881],[146.135,78.1516],[146.861,78.9274],[147.539,79.7148],[148.17,80.5129],[148.753,81.321],[149.288,82.1384],[149.773,82.9641],[150.208,83.7973],[150.593,84.6374],[150.927,85.4833],[151.211,86.3344],[151.443,87.1897],[151.624,88.0483],[151.724,88.7157],[151.741,88.8267],[151.754,88.9096],[151.754,88.9148],[151.77,89.0953],[151.817,89.6182],[151.831,89.7725],[151.835,89.9001],[151.842,90.1389],[151.857,90.6363],[151.842,91.1337],[151.835,91.3726],[151.831,91.5001],[151.817,91.6544],[151.77,92.1773],[151.754,92.3578],[151.754,92.3631],[151.741,92.446],[151.724,92.5569],[151.624,93.2243],[151.443,94.083],[151.211,94.9383],[150.927,95.7893],[150.593,96.6353],[150.208,97.4753],[149.773,98.3086],[149.288,99.1343],[148.753,99.9516],[148.17,100.76],[147.539,101.558],[146.861,102.345],[146.135,103.121],[145.363,103.885],[144.546,104.635],[143.684,105.372],[142.779,106.094],[141.831,106.8],[140.84,107.491],[139.809,108.165],[138.738,108.822],[137.628,109.461],[136.48,110.082],[135.296,110.683],[134.076,111.264],[132.822,111.825],[131.535,112.366],[130.216,112.884],[128.866,113.381],[127.488,113.855],[126.082,114.307],[124.649,114.735],[123.192,115.139],[121.711,115.519],[120.207,115.875],[118.684,116.205],[117.141,116.511],[115.581,116.79],[114.004,117.044],[112.413,117.272],[110.81,117.474],[109.195,117.649],[107.57,117.798],[105.937,117.919],[104.298,118.014],[102.654,118.082],[101.006,118.123],[99.3571,118.136],[97.7081,118.123],[96.0606,118.082],[94.4164,118.014],[92.7771,117.919],[91.1443,117.798],[89.5196,117.649],[87.9046,117.474],[86.3009,117.272],[84.7101,117.044],[83.1337,116.79],[81.5734,116.511],[80.0306,116.205],[78.5069,115.875],[77.0037,115.519],[75.5226,115.139],[74.0651,114.735],[72.6324,114.307],[71.2262,113.855],[69.8477,113.381],[68.4984,112.884],[67.1795,112.366],[65.8924,111.825],[64.6383,111.264],[63.4184,110.683],[62.234,110.082],[61.0863,109.461],[59.9763,108.822],[58.9052,108.165],[57.874,107.491],[56.8837,106.8],[55.9354,106.094],[55.0299,105.372],[54.1682,104.635],[53.351,103.885],[52.5793,103.121],[51.8537,102.345],[51.175,101.558],[50.5439,100.76],[49.9609,99.9516],[49.4267,99.1343],[48.9417,98.3086],[48.5065,97.4753],[48.1215,96.6353],[47.787,95.7893],[47.5035,94.9383],[47.2711,94.083],[47.0901,93.2243],[46.9898,92.5569],[46.9732,92.446],[46.9607,92.3631],[46.9602,92.3578],[46.944,92.1773],[46.8969,91.6544],[46.883,91.5001],[46.8792,91.3726],[46.872,91.1337],[46.8571,90.6363]]
M73 P0 R67
;TYPE:Custom
M220 S100 ;Reset Feedrate 
M221 S100 ;Reset Flowrate 
 
M140 S60 ;Set final bed temp  
G28 ;Home 
 
G92 E0 ;Reset Extruder 
G1 Z2.0 F3000 ;Move Z Axis up 
M104 S195 ;Set final nozzle temp  
G1 X-2.0 Y20 Z0.28 F5000.0 ;Move to start position 
M190 S60 ;Wait for bed temp to stabilize  
M109 S195 ;Wait for nozzle temp to stabilize  
G1 X-2.0 Y145.0 Z0.28 F1500.0 E15 ;Draw the first line 
G1 X-1.7 Y145.0 Z0.28 F5000.0 ;Move to side a little 
G1 X-1.7 Y20 Z0.28 F1500.0 E30 ;Draw the second line 
G92 E0 ;Reset Extruder 
G1 E-1.0000 F1800 ;Retract a bit 
G1 Z2.0 F3000 ;Move Z Axis up 
G1 E0.0000 F1800
G90
G21
M83 ; use relative distances for extrusion
; filament start gcode
M106 S0
;LAYER_CHANGE
;Z:0.2
;HEIGHT:0.2
;BEFORE_LAYER_CHANGE
;0.2
G92 E0

G1 Z.2 F18000
;_SET_FAN_SPEED_CHANGING_LAYER
SET_VELOCITY_LIMIT ACCEL=500 ACCEL_TO_DECEL=250
SET_VELOCITY_LIMIT SQUARE_CORNER_VELOCITY=7
; printing object TopV2.stl id:0 copy 0
G1 E-.5 F2400
EXCLUDE_OBJECT_START NAME=TopV2.stl_id_0_copy_0
G1 X56.208 Y75.27 F18000
G1 E.5 F2400
;TYPE:Outer wall
;WIDTH:0.433832
G1 F2069
G1 X57.086 Y74.619 E.03483
G1 X58.072 Y73.934 E.03822
;WIDTH:0.434048
G1 X59.098 Y73.266 E.03903
;WIDTH:0.434438
G1 X60.163 Y72.616 E.03982
;WIDTH:0.434996
G1 X61.269 Y71.982 E.04071
;WIDTH:0.435684
G1 X62.411 Y71.367 E.04152
;WIDTH:0.4365
G1 X63.59 Y70.772 E.04236
;WIDTH:0.437428
G1 X64.804 Y70.196 E.0432
;WIDTH:0.438454
G1 X66.052 Y69.64 E.04404
;WIDTH:0.43955
G1 X67.333 Y69.104 E.04487
;WIDTH:0.440698
G1 X68.645 Y68.59 E.04569
;WIDTH:0.441894
G1 X69.988 Y68.098 E.0465
;WIDTH:0.44312
G1 X71.36 Y67.628 E.0473
;WIDTH:0.444356
G1 X72.76 Y67.181 E.04806
;WIDTH:0.44559
G1 X74.186 Y66.757 E.04881
;WIDTH:0.446808
G1 X75.636 Y66.356 E.04953
;WIDTH:0.448006
G1 X77.11 Y65.98 E.05022
;WIDTH:0.44916
G1 X78.606 Y65.627 E.05087
;WIDTH:0.450268
G1 X80.123 Y65.3 E.0515
;WIDTH:0.45132
G1 X81.658 Y64.997 E.05208
;WIDTH:0.4523
G1 X83.211 Y64.72 E.05263
;WIDTH:0.453216
G1 X84.78 Y64.468 E.05312
;WIDTH:0.454038
G1 X86.363 Y64.242 E.05358
;WIDTH:0.454778
G1 X87.959 Y64.043 E.05398
;WIDTH:0.455418
G1 X89.566 Y63.869 E.05434
;WIDTH:0.455962
G1 X91.184 Y63.722 E.05465
;WIDTH:0.456402
G1 X92.808 Y63.601 E.0549
;WIDTH:0.456734
G1 X94.44 Y63.507 E.05511
;WIDTH:0.456958
G1 X96.076 Y63.44 E.05526
;WIDTH:0.457066
G1 X97.716 Y63.4 E.05535
G1 X99.357 Y63.386 E.05539
;WIDTH:0.456942
G1 X100.998 Y63.4 E.05537
G1 X102.638 Y63.44 E.05533
;WIDTH:0.456716
G1 X104.274 Y63.507 E.05522
;WIDTH:0.456374
G1 X105.906 Y63.601 E.05506
;WIDTH:0.455926
G1 X107.531 Y63.722 E.05484
;WIDTH:0.45537
G1 X109.148 Y63.869 E.05457
;WIDTH:0.454708
G1 X110.755 Y64.043 E.05425
;WIDTH:0.453956
G1 X112.351 Y64.242 E.05388
;WIDTH:0.4531
G1 X113.934 Y64.468 E.05346
;WIDTH:0.452158
G1 X115.503 Y64.72 E.05298
;WIDTH:0.451128
G1 X117.056 Y64.997 E.05248
;WIDTH:0.450028
G1 X118.592 Y65.3 E.05191
;WIDTH:0.448856
G1 X120.108 Y65.627 E.05132
;WIDTH:0.447622
G1 X121.604 Y65.98 E.05068
;WIDTH:0.446344
G1 X123.078 Y66.356 E.05002
;WIDTH:0.445018
G1 X124.529 Y66.757 E.04931
;WIDTH:0.44367
G1 X125.954 Y67.181 E.04858
;WIDTH:0.442298
G1 X127.354 Y67.628 E.04781
;WIDTH:0.440926
G1 X128.726 Y68.098 E.04703
;WIDTH:0.439556
G1 X130.069 Y68.59 E.04623
;WIDTH:0.438212
G1 X131.381 Y69.104 E.04541
;WIDTH:0.436908
G1 X132.662 Y69.64 E.04457
;WIDTH:0.435652
G1 X133.911 Y70.196 E.04372
;WIDTH:0.434466
G1 X135.125 Y70.772 E.04288
;WIDTH:0.43336
G1 X136.303 Y71.367 E.04202
;WIDTH:0.43237
G1 X137.446 Y71.982 E.04116
;WIDTH:0.431494
G1 X138.55 Y72.615 E.04032
;WIDTH:0.430762
G1 X139.616 Y73.266 E.03948
;WIDTH:0.430174
G1 X140.643 Y73.934 E.03864
;WIDTH:0.429772
G1 X141.628 Y74.619 E.03783
;WIDTH:0.429556
G1 X142.576 Y75.322 E.03719
;WIDTH:0.434376
G1 X143.532 Y76.085 E.03902
;WIDTH:0.434988
G1 X144.388 Y76.817 E.03595
;WIDTH:0.43582
G1 X145.198 Y77.561 E.03524
;WIDTH:0.436874
G1 X145.963 Y78.319 E.03456
;WIDTH:0.43814
G1 X146.682 Y79.088 E.03391
;WIDTH:0.439608
G1 X147.353 Y79.868 E.03328
;WIDTH:0.441248
G1 X147.977 Y80.659 E.03269
;WIDTH:0.443034
G1 X148.553 Y81.459 E.03213
;WIDTH:0.444924
G1 X149.08 Y82.267 E.03161
;WIDTH:0.446868
G1 X149.558 Y83.083 E.03113
;WIDTH:0.448818
G1 X149.987 Y83.906 E.03068
;WIDTH:0.450704
G1 X150.366 Y84.734 E.03028
;WIDTH:0.452458
G1 X150.694 Y85.568 E.02991
;WIDTH:0.45401
G1 X150.973 Y86.406 E.02959
;WIDTH:0.455308
G1 X151.201 Y87.248 E.02931
;WIDTH:0.456278
G1 X151.378 Y88.093 E.02907
;WIDTH:0.456876
G1 X151.505 Y88.939 E.02888
;WIDTH:0.457074
G1 X151.582 Y89.788 E.02874
G1 X151.607 Y90.643 E.02887
;WIDTH:0.456852
G1 X151.58 Y91.506 E.02913
;WIDTH:0.456222
G1 X151.501 Y92.368 E.02915
;WIDTH:0.455214
G1 X151.37 Y93.228 E.02923
;WIDTH:0.45386
G1 X151.186 Y94.085 E.02934
;WIDTH:0.452206
G1 X150.951 Y94.937 E.02951
;WIDTH:0.450258
G1 X150.665 Y95.785 E.02971
;WIDTH:0.448262
G1 X150.327 Y96.628 E.02997
;WIDTH:0.446106
G1 X149.939 Y97.463 E.03027
;WIDTH:0.44391
G1 X149.501 Y98.292 E.03061
;WIDTH:0.44174
G1 X149.014 Y99.112 E.03101
;WIDTH:0.439652
G1 X148.478 Y99.923 E.03144
;WIDTH:0.437692
G1 X147.893 Y100.724 E.03191
;WIDTH:0.435896
G1 X147.261 Y101.515 E.03242
;WIDTH:0.434296
G1 X146.581 Y102.296 E.03302
;WIDTH:0.432918
G1 X145.856 Y103.063 E.03353
;WIDTH:0.43172
G1 X145.085 Y103.818 E.0342
;WIDTH:0.430852
G1 X144.269 Y104.56 E.03487
;WIDTH:0.430184
G1 X143.409 Y105.289 E.03556
;WIDTH:0.429742
G1 X142.506 Y106.002 E.03628
;WIDTH:0.433832
G1 X141.628 Y106.654 E.03483
G1 X140.642 Y107.338 E.03822
;WIDTH:0.434048
G1 X139.617 Y108.006 E.039
;WIDTH:0.434406
G1 X138.549 Y108.658 E.0399
;WIDTH:0.434992
G1 X137.446 Y109.29 E.04065
;WIDTH:0.435682
G1 X136.303 Y109.905 E.04152
;WIDTH:0.4365
G1 X135.125 Y110.501 E.04236
;WIDTH:0.437428
G1 X133.911 Y111.077 E.0432
;WIDTH:0.438454
G1 X132.662 Y111.633 E.04404
;WIDTH:0.439548
G1 X131.382 Y112.168 E.04484
;WIDTH:0.440702
G1 X130.069 Y112.682 E.04572
;WIDTH:0.441896
G1 X128.726 Y113.174 E.0465
;WIDTH:0.443122
G1 X127.354 Y113.644 E.0473
;WIDTH:0.444356
G1 X125.955 Y114.092 E.04806
;WIDTH:0.445556
G1 X124.529 Y114.516 E.04881
;WIDTH:0.44681
G1 X123.078 Y114.916 E.04953
;WIDTH:0.448006
G1 X121.604 Y115.293 E.05022
;WIDTH:0.449126
G1 X120.107 Y115.645 E.05091
;WIDTH:0.450268
G1 X118.592 Y115.973 E.05146
;WIDTH:0.45132
G1 X117.056 Y116.275 E.05208
;WIDTH:0.4523
G1 X115.503 Y116.553 E.05263
;WIDTH:0.453216
G1 X113.934 Y116.804 E.05312
;WIDTH:0.454038
G1 X112.352 Y117.03 E.05355
;WIDTH:0.454746
G1 X110.754 Y117.23 E.05405
;WIDTH:0.455418
G1 X109.148 Y117.404 E.05431
;WIDTH:0.455962
G1 X107.531 Y117.551 E.05465
;WIDTH:0.456404
G1 X105.906 Y117.671 E.0549
;WIDTH:0.456736
G1 X104.274 Y117.765 E.05511
;WIDTH:0.456956
G1 X102.638 Y117.833 E.05525
;WIDTH:0.45706
G1 X100.998 Y117.873 E.05535
G1 X99.355 Y117.886 E.05544
G1 X97.716 Y117.873 E.05533
;WIDTH:0.456942
G1 X96.077 Y117.833 E.0553
;WIDTH:0.456718
G1 X94.44 Y117.765 E.05526
;WIDTH:0.456374
G1 X92.808 Y117.671 E.05506
;WIDTH:0.455926
G1 X91.184 Y117.551 E.05484
;WIDTH:0.45537
G1 X89.566 Y117.404 E.05457
;WIDTH:0.45471
G1 X87.959 Y117.23 E.05425
;WIDTH:0.453956
G1 X86.363 Y117.03 E.05388
;WIDTH:0.4531
G1 X84.779 Y116.804 E.05349
;WIDTH:0.452124
G1 X83.212 Y116.553 E.05291
;WIDTH:0.451132
G1 X81.658 Y116.275 E.05251
;WIDTH:0.450028
G1 X80.123 Y115.973 E.05191
;WIDTH:0.448858
G1 X78.606 Y115.645 E.05133
;WIDTH:0.447622
G1 X77.11 Y115.293 E.05068
;WIDTH:0.446344
G1 X75.636 Y114.916 E.05002
;WIDTH:0.445018
G1 X74.186 Y114.516 E.04931
;WIDTH:0.44367
G1 X72.76 Y114.092 E.04858
;WIDTH:0.442298
G1 X71.36 Y113.644 E.04782
;WIDTH:0.440928
G1 X69.988 Y113.174 E.04704
;WIDTH:0.439556
G1 X68.645 Y112.682 E.04622
;WIDTH:0.438214
G1 X67.333 Y112.168 E.04541
;WIDTH:0.43691
G1 X66.053 Y111.633 E.04454
;WIDTH:0.435656
G1 X64.804 Y111.077 E.04375
;WIDTH:0.434466
G1 X63.59 Y110.501 E.04288
;WIDTH:0.43336
G1 X62.411 Y109.905 E.04202
;WIDTH:0.432372
G1 X61.269 Y109.291 E.04116
;WIDTH:0.431496
G1 X60.164 Y108.657 E.04032
;WIDTH:0.430762
G1 X59.097 Y108.006 E.0395
;WIDTH:0.430136
G1 X58.072 Y107.339 E.03859
;WIDTH:0.42978
G1 X57.086 Y106.654 E.03785
;WIDTH:0.42956
G1 X56.138 Y105.95 E.03719
;WIDTH:0.434376
G1 X55.182 Y105.187 E.03902
;WIDTH:0.434988
G1 X54.327 Y104.456 E.03595
;WIDTH:0.43582
G1 X53.516 Y103.711 E.03524
;WIDTH:0.436874
G1 X52.751 Y102.954 E.03456
;WIDTH:0.438092
G1 X52.034 Y102.186 E.03386
;WIDTH:0.439606
G1 X51.361 Y101.404 E.03332
;WIDTH:0.44125
G1 X50.737 Y100.614 E.03269
;WIDTH:0.443034
G1 X50.161 Y99.814 E.03213
;WIDTH:0.444922
G1 X49.634 Y99.006 E.03161
;WIDTH:0.446868
G1 X49.156 Y98.19 E.03113
;WIDTH:0.448822
G1 X48.727 Y97.367 E.03068
;WIDTH:0.450706
G1 X48.349 Y96.538 E.03028
;WIDTH:0.452458
G1 X48.02 Y95.705 E.02991
;WIDTH:0.454012
G1 X47.741 Y94.866 E.02959
;WIDTH:0.455294
G1 X47.513 Y94.025 E.0293
;WIDTH:0.45624
G1 X47.331 Y93.149 E.03015
;WIDTH:0.456878
G1 X47.209 Y92.333 E.02781
;WIDTH:0.457076
G1 X47.133 Y91.485 E.02874
G1 X47.107 Y90.63 E.02887
;WIDTH:0.456852
G1 X47.134 Y89.767 E.02913
;WIDTH:0.456224
G1 X47.213 Y88.905 E.02915
;WIDTH:0.455216
G1 X47.345 Y88.045 E.02923
;WIDTH:0.45386
G1 X47.528 Y87.188 E.02934
;WIDTH:0.45221
G1 X47.763 Y86.335 E.02951
;WIDTH:0.450318
G1 X48.05 Y85.487 E.02971
;WIDTH:0.448264
G1 X48.387 Y84.645 E.02997
;WIDTH:0.446108
G1 X48.775 Y83.809 E.03027
;WIDTH:0.443914
G1 X49.213 Y82.981 E.03061
;WIDTH:0.44174
G1 X49.7 Y82.161 E.031
;WIDTH:0.439654
G1 X50.237 Y81.35 E.03144
;WIDTH:0.437692
G1 X50.821 Y80.548 E.03191
;WIDTH:0.435898
G1 X51.453 Y79.757 E.03242
;WIDTH:0.434296
G1 X52.132 Y78.978 E.03298
;WIDTH:0.432914
G1 X52.858 Y78.21 E.03358
;WIDTH:0.43177
G1 X53.629 Y77.454 E.0342
;WIDTH:0.430854
G1 X54.445 Y76.712 E.03487
;WIDTH:0.430186
G1 X55.305 Y75.984 E.03556
;WIDTH:0.42975
G1 X56.177 Y75.295 E.03502
; stop printing object TopV2.stl id:0 copy 0
M106 S255
;LAYER_CHANGE
;Z:0.4
;HEIGHT:0.2
;BEFORE_LAYER_CHANGE
;0.4
G92 E0

EXCLUDE_OBJECT_END NAME=TopV2.stl_id_0_copy_0
G1 Z.4 F18000
;_SET_FAN_SPEED_CHANGING_LAYER
SET_VELOCITY_LIMIT ACCEL=5000 ACCEL_TO_DECEL=2500
M140 S60 ; set bed temperature
; printing object TopV2.stl id:0 copy 0
SET_VELOCITY_LIMIT SQUARE_CORNER_VELOCITY=8
G1 E-.35 F2400
;WIPE_START
G1 F3000
G1 X56.979 Y74.699 E-.15
;WIPE_END
EXCLUDE_OBJECT_START NAME=TopV2.stl_id_0_copy_0
G1 X47.132 Y91.334 F18000
G1 E.5 F2400
SET_VELOCITY_LIMIT ACCEL=2500 ACCEL_TO_DECEL=1250
;WIDTH:0.465538
G1 F1989
G1 X47.209 Y92.333 E.0345
;WIDTH:0.45725
G1 X47.336 Y93.18 E.02891
;WIDTH:0.45628
G1 X47.513 Y94.025 E.02907
;WIDTH:0.45531
G1 X47.741 Y94.866 E.02931
;WIDTH:0.45401
G1 X48.02 Y95.705 E.02959
;WIDTH:0.452458
G1 X48.349 Y96.538 E.02991
;WIDTH:0.450706
G1 X48.727 Y97.367 E.03028
;WIDTH:0.448822
G1 X49.156 Y98.19 E.03068
;WIDTH:0.446868
G1 X49.634 Y99.006 E.03113
;WIDTH:0.444944
G1 X50.161 Y99.814 E.03161
;WIDTH:0.443032
G1 X50.737 Y100.614 E.03213
;WIDTH:0.441246
G1 X51.364 Y101.407 E.03282
;WIDTH:0.439456
G1 X52.033 Y102.184 E.03314
;WIDTH:0.438136
G1 X52.751 Y102.954 E.03391
;WIDTH:0.436874
G1 X53.516 Y103.711 E.03456
;WIDTH:0.43582
G1 X54.327 Y104.456 E.03524
;WIDTH:0.435118
G1 X55.182 Y105.187 E.03596
;WIDTH:0.434376
G1 X56.136 Y105.949 E.03895
;WIDTH:0.429558
G1 X57.086 Y106.654 E.03726
;WIDTH:0.429772
G1 X58.072 Y107.338 E.03783
;WIDTH:0.43018
G1 X59.098 Y108.007 E.03865
;WIDTH:0.43078
G1 X60.166 Y108.659 E.03955
;WIDTH:0.431496
G1 X61.269 Y109.291 E.04024
;WIDTH:0.432372
G1 X62.411 Y109.905 E.04116
;WIDTH:0.433362
